X:1863
L:1/8
M:2/2
K:Gmin
 B2 GB DGBG | A2 Fc AFcA | B2 GB DGBG | AG^FA G/G/G G2 :| dgga bgaf | cffg afge | dgga bgaf | 
 ag^fa g/g/g g2 | dgga bgaf | cffg afge | defg fdcB | AG^FA G/G/G G2 ||

